ui/StatusQ/src/assets/img/icons/chat-commands.svg

<svg fill="none" height="24" viewBox="0 0 24 24" width="24" xmlns="http://www.w3.org/2000/svg"><g fill="#000"><path d="m12 7.25c.4142 0 .75.33579.75.75v2.75c0 .2761.2239.5.5.5h2.75c.4142 0 .75.3358.75.75s-.3358.75-.75.75h-2.75c-.2761 0-.5.2239-.5.5v2.75c0 .4142-.3358.75-.75.75s-.75-.3358-.75-.75v-2.75c0-.2761-.2239-.5-.5-.5h-2.75c-.41421 0-.75-.3358-.75-.75s.33579-.75.75-.75h2.75c.2761 0 .5-.2239.5-.5v-2.75c0-.41421.3358-.75.75-.75z"/><path clip-rule="evenodd" d="m2 12c0-5.52285 4.47715-10 10-10 5.5228 0 10 4.47715 10 10v6.6667c0 1.8409-1.4924 3.3333-3.3333 3.3333h-6.6667c-5.52285 0-10-4.4772-10-10zm18.5 0v6.6667c0 1.0125-.8208 1.8333-1.8333 1.8333h-6.6667c-4.69442 0-8.5-3.8056-8.5-8.5 0-4.69442 3.80558-8.5 8.5-8.5 4.6944 0 8.5 3.80558 8.5 8.5z" fill-rule="evenodd"/></g></svg>

<svg width="24" height="24" viewBox="0 0 24 24" fill="none" xmlns="http://www.w3.org/2000/svg">
<path d="M12 7.25C12.4142 7.25 12.75 7.58579 12.75 8V10.75C12.75 11.0261 12.9739 11.25 13.25 11.25H16C16.4142 11.25 16.75 11.5858 16.75 12C16.75 12.4142 16.4142 12.75 16 12.75H13.25C12.9739 12.75 12.75 12.9739 12.75 13.25V16C12.75 16.4142 12.4142 16.75 12 16.75C11.5858 16.75 11.25 16.4142 11.25 16V13.25C11.25 12.9739 11.0261 12.75 10.75 12.75H8C7.58579 12.75 7.25 12.4142 7.25 12C7.25 11.5858 7.58579 11.25 8 11.25H10.75C11.0261 11.25 11.25 11.0261 11.25 10.75V8C11.25 7.58579 11.5858 7.25 12 7.25Z" fill="black"/>
<path fill-rule="evenodd" clip-rule="evenodd" d="M2 12C2 6.47715 6.47715 2 12 2C17.5228 2 22 6.47715 22 12V18.6667C22 20.5076 20.5076 22 18.6667 22H12C6.47715 22 2 17.5228 2 12ZM20.5 12V18.6667C20.5 19.6792 19.6792 20.5 18.6667 20.5H12C7.30558 20.5 3.5 16.6944 3.5 12C3.5 7.30558 7.30558 3.5 12 3.5C16.6944 3.5 20.5 7.30558 20.5 12Z" fill="black"/>
</svg>
